X:1
T:Title
%%score ( 1 2 ) { 3 | 4 }
L:1/8
Q:1/4=112
M:4/4
K:D
V:1 treble nm="Grand Piano, Staff"
V:2 treble 
V:3 bass nm="Choir Pad, Clewer, 65.65"
V:4 bass 
V:1
 [A,D]2 [B,D]2 [CE]2 [DF]2 | [DG]4 [DF]4 | [DA]2 [CA]2 [DG]2 [DF]2 | E8 | %4
w: By~Anonymous * * *||||
 [DA]2 [DF]2 [B,B]2 [CA]2 | G2- [A,G]2 [A,F]4 | E2 [DF]2 [DG]2 [CE]2 | [DF]8 |] %8
w: ||||
V:2
 x8 | x8 | x8 | x8 | x8 | D2 z2 z4 | x8 | x8 |] %8
V:3
 F,2 F,2 A,2 A,2 | B,4 A,4 | F,2 E,2 G,2 A,2 | A,8 | A,2 A,2 G,2 F,2 | D,2 E,2 D,4 | %6
 B,2 A,2 B,2 A,2 | A,8 |] %8
V:4
 D,2 B,,2 A,,2 D,2 | G,,4 D,4 | D,2 A,,2 B,,2 D,2 | A,,8 | F,2 D,2 G,,2 A,,2 | B,,2 C,2 z4 | %6
 G,2 F,2 E,2 A,,2 | D,8 |] %8

